icons/1_Primary/Cults.svg

<svg xmlns="http://www.w3.org/2000/svg" viewBox="0 0 1024 1024">
   <circle cx="512" cy="512" r="512" style="fill:#822ef5"/>
   <path d="M690.86 432.85c-4.9-94.43-83.26-169.75-178.88-169.75s-173.74 75.09-178.85 169.31l2.55-1.25c-49.68 31.83-82.67 87.53-82.67 150.78 0 98.68 80.3 178.96 178.96 178.96 28.76 0 55.93-6.85 80.01-18.94 24.11 12.11 51.31 18.95 80.08 18.95 98.68 0 178.96-80.29 178.96-178.96 0-62.16-31.88-117-80.14-149.09ZM592.04 723.1c-67.59 0-124.2-47.74-137.95-111.25l20.25-11.63v-43.44l-60.98 34.99c2.71 49.67 25.77 94.02 60.96 124.83-13.36 4.23-27.59 6.5-42.35 6.5-77.83 0-141.15-63.33-141.15-141.17s63.32-141.17 141.15-141.17c14.78 0 29.02 2.29 42.39 6.51v22.92l37.65 21.58v-69.84c-24.1-12.1-51.28-18.95-80.04-18.95-21.27 0-41.68 3.74-60.62 10.58l2.54-1.25c13.77-63.58 70.44-111.38 138.1-111.38 77.9 0 141.31 63.39 141.31 141.31 0 41.13-17.67 78.19-45.8 104.04l-19.71-11.3-37.89 21.72 60.86 34.9c38.87-25.79 67.13-66.32 76.76-113.55 28.08 25.82 45.71 62.84 45.71 103.9 0 77.83-63.33 141.16-141.16 141.16Z" style="fill:#fff"/>
</svg>

<svg width="1024" height="1024" viewBox="0 0 1024 1024" fill="none" xmlns="http://www.w3.org/2000/svg">
<g clip-path="url(#clip0_2_1944)">
<path d="M512 1024C794.77 1024 1024 794.77 1024 512C1024 229.23 794.77 0 512 0C229.23 0 0 229.23 0 512C0 794.77 229.23 1024 512 1024Z" fill="#8C72BD"/>
<path d="M690.86 432.85C685.96 338.42 607.6 263.1 511.98 263.1C416.36 263.1 338.24 338.19 333.13 432.41L335.68 431.16C286 462.99 253.01 518.69 253.01 581.94C253.01 680.62 333.31 760.9 431.97 760.9C460.73 760.9 487.9 754.05 511.98 741.96C536.09 754.07 563.29 760.91 592.06 760.91C690.74 760.91 771.02 680.62 771.02 581.95C771.02 519.79 739.14 464.95 690.88 432.86L690.86 432.85ZM592.04 723.1C524.45 723.1 467.84 675.36 454.09 611.85L474.34 600.22V556.78L413.36 591.77C416.07 641.44 439.13 685.79 474.32 716.6C460.96 720.83 446.73 723.1 431.97 723.1C354.14 723.1 290.82 659.77 290.82 581.93C290.82 504.09 354.14 440.76 431.97 440.76C446.75 440.76 460.99 443.05 474.36 447.27V470.19L512.01 491.77V421.93C487.91 409.83 460.73 402.98 431.97 402.98C410.7 402.98 390.29 406.72 371.35 413.56L373.89 412.31C387.66 348.73 444.33 300.93 511.99 300.93C589.89 300.93 653.3 364.32 653.3 442.24C653.3 483.37 635.63 520.43 607.5 546.28L587.79 534.98L549.9 556.7L610.76 591.6C649.63 565.81 677.89 525.28 687.52 478.05C715.6 503.87 733.23 540.89 733.23 581.95C733.23 659.78 669.9 723.11 592.07 723.11L592.04 723.1Z" fill="white"/>
</g>
<defs>
<clipPath id="clip0_2_1944">
<rect width="1024" height="1024" fill="white"/>
</clipPath>
</defs>
</svg>
